X:1498
T:Denny Beck
O:england
R:Waltz
N:Feb '96
M:3/4
Q:1/8=300
C:Andy Hornby
A:Lancaster
K:Am
E2 A^G A2| EA BA B2| E2 cB A2| B4 e2|\
E2 A^G A2| B2 c2 d2\
|1 ec Ae dc|B3A ^GB :|2 ec E2 ^G2|A4 ||
|:ef|\
e2 dc BA| B2E2 ef| ed ce dc|B4 ef|\
g2 fe dc| dc BA ^GA| Bc B2^G2|1A4 :|2 A6 |]
W:Copyright (C) Andy Hornby


